X: 26629
T: Mickey Mor Doherty's March
R: polka
M: 2/4
K: Dmixolydian
d>c|A/B/A/G/ FG|A/B/c/A/ BG|A/B/A/G/ FG|Ad d>c|
A/B/A/G/ FG|A/B/c/A/ BG|A/B/A/G/ FG|Ad||
d>e|fd gf|dc Ad/e/|fa gf|d2 dA/d/|
fa gf|dc A>B|cB cA|G2 c>B||

